static/images/investors/light/flybridge.svg

<svg width="276" height="63" viewBox="0 0 276 63" fill="none" xmlns="http://www.w3.org/2000/svg">
<g clip-path="url(#clip0_4305_131717)">
<path fill-rule="evenodd" clip-rule="evenodd" d="M113.787 35.3548C113.787 33.617 112.429 32.7901 109.893 32.7901H104.187V37.8892H109.893C112.429 37.8892 113.787 37.1228 113.787 35.3548ZM104.187 24.4507V29.3122H109.048C111.432 29.3122 112.73 28.4876 112.73 26.8663C112.73 25.2451 111.432 24.4507 109.048 24.4507H104.187ZM118.71 35.8556C118.71 39.4219 115.811 41.4834 110.255 41.4834H99.3262V20.8541H109.652C114.935 20.8541 117.653 23.0065 117.653 26.2188C117.653 28.2826 116.565 29.8713 114.844 30.7565C117.199 31.4949 118.71 33.2629 118.71 35.8556Z" fill="#56565C"/>
<path fill-rule="evenodd" clip-rule="evenodd" d="M137.343 24.7449H133.358V31.9357H137.343C140.331 31.9357 141.842 30.58 141.842 28.3391C141.842 26.0703 140.331 24.7449 137.343 24.7449ZM141.932 41.484L137.856 35.7373H137.615H133.358V41.484H128.469V20.8547H137.615C143.259 20.8547 146.793 23.7153 146.793 28.3391C146.793 31.4349 145.194 33.7038 142.445 34.8545L147.187 41.484H141.932Z" fill="#56565C"/>
<mask id="mask0_4305_131717" style="mask-type:alpha" maskUnits="userSpaceOnUse" x="26" y="20" width="223" height="22">
<path d="M26.5 41.8374H248.915V20.5H26.5V41.8374Z" fill="white"/>
</mask>
<g mask="url(#mask0_4305_131717)">
<path fill-rule="evenodd" clip-rule="evenodd" d="M156.699 41.4811H161.589V20.8541H156.699V41.4811Z" fill="#56565C"/>
<path fill-rule="evenodd" clip-rule="evenodd" d="M182.002 37.5636C186.197 37.5636 188.946 35.1177 188.946 31.1694C188.946 27.221 186.197 24.7751 182.002 24.7751H177.532V37.5636H182.002ZM172.643 20.8547H182.243C189.156 20.8547 193.895 24.9219 193.895 31.1694C193.895 37.4192 189.156 41.484 182.243 41.484H172.643V20.8547Z" fill="#56565C"/>
<path fill-rule="evenodd" clip-rule="evenodd" d="M217.902 30.8462H222.369V39.2158C220.045 40.9232 216.845 41.8387 213.826 41.8387C207.185 41.8387 202.293 37.3895 202.293 31.17C202.293 24.9527 207.185 20.5012 213.917 20.5012C217.63 20.5012 220.708 21.7405 222.763 24.0676L219.622 26.8978C218.083 25.3045 216.303 24.5684 214.158 24.5684C210.051 24.5684 207.245 27.2495 207.245 31.17C207.245 35.0298 210.051 37.7715 214.098 37.7715C215.425 37.7715 216.663 37.5362 217.902 36.8863V30.8462Z" fill="#56565C"/>
<path fill-rule="evenodd" clip-rule="evenodd" d="M248.914 37.6521H237.804V32.8792H244.655L247.344 29.1637H237.804V24.6866H245.946L248.721 20.8547H232.945V41.484H246.139L248.914 37.6521Z" fill="#56565C"/>
<path fill-rule="evenodd" clip-rule="evenodd" d="M39.7392 30.1387H31.3895V24.6855H43.29L45.786 20.856H26.5V41.4829H31.3895V33.9705H37.2455L39.7392 30.1387Z" fill="#56565C"/>
<path fill-rule="evenodd" clip-rule="evenodd" d="M51.4238 21.1316V41.8375H67.165V37.9325H56.3936V21.1316H51.4238Z" fill="#56565C"/>
<path fill-rule="evenodd" clip-rule="evenodd" d="M86.0432 21.1316L80.4761 30.3306L74.9091 21.1316H69.7891L77.8573 34.4437V41.8375H82.6785V34.5045L90.7773 21.1316H86.0432Z" fill="#56565C"/>
</g>
</g>
<defs>
<clipPath id="clip0_4305_131717">
<rect width="223" height="22" fill="white" transform="translate(26.5 20.5)"/>
</clipPath>
</defs>
</svg>

<svg xmlns="http://www.w3.org/2000/svg" width="276" height="63" fill="none"><g clip-path="url(#a)"><path fill="#56565C" fill-rule="evenodd" d="M113.787 35.355c0-1.738-1.358-2.565-3.894-2.565h-5.706v5.1h5.706c2.536 0 3.894-.767 3.894-2.535Zm-9.6-10.904v4.861h4.861c2.384 0 3.682-.824 3.682-2.446 0-1.62-1.298-2.415-3.682-2.415h-4.861Zm14.523 11.405c0 3.566-2.899 5.627-8.455 5.627H99.326V20.854h10.326c5.283 0 8.001 2.152 8.001 5.365 0 2.064-1.088 3.652-2.809 4.537 2.355.739 3.866 2.507 3.866 5.1ZM137.343 24.745h-3.985v7.19h3.985c2.988 0 4.499-1.355 4.499-3.596 0-2.269-1.511-3.594-4.499-3.594Zm4.589 16.739-4.076-5.747H133.358v5.747h-4.889v-20.63h9.146c5.644 0 9.178 2.861 9.178 7.485 0 3.096-1.599 5.365-4.348 6.516l4.742 6.629h-5.255Z" clip-rule="evenodd"/><mask id="b" width="223" height="22" x="26" y="20" maskUnits="userSpaceOnUse" style="mask-type:alpha"><path fill="#fff" d="M26.5 41.837h222.415V20.5H26.5v21.337Z"/></mask><g fill="#56565C" fill-rule="evenodd" clip-rule="evenodd" mask="url(#b)"><path d="M156.699 41.481h4.89V20.854h-4.89v20.627ZM182.002 37.564c4.195 0 6.944-2.446 6.944-6.395 0-3.948-2.749-6.394-6.944-6.394h-4.47v12.789h4.47Zm-9.359-16.71h9.6c6.913 0 11.652 4.068 11.652 10.315 0 6.25-4.739 10.315-11.652 10.315h-9.6v-20.63ZM217.902 30.846h4.467v8.37c-2.324 1.707-5.524 2.623-8.543 2.623-6.641 0-11.533-4.45-11.533-10.669 0-6.217 4.892-10.669 11.624-10.669 3.713 0 6.791 1.24 8.846 3.567l-3.141 2.83c-1.539-1.593-3.319-2.33-5.464-2.33-4.107 0-6.913 2.681-6.913 6.602 0 3.86 2.806 6.602 6.853 6.602 1.327 0 2.565-.236 3.804-.886v-6.04ZM248.914 37.652h-11.11V32.88h6.851l2.689-3.715h-9.54v-4.477h8.142l2.775-3.832h-15.776v20.629h13.194l2.775-3.832ZM39.74 30.139h-8.35v-5.453h11.9l2.496-3.83H26.5v20.627h4.89V33.97h5.855l2.494-3.832ZM51.424 21.132v20.705h15.741v-3.905H56.394v-16.8h-4.97ZM86.043 21.132l-5.567 9.199-5.567-9.2h-5.12l8.068 13.313v7.393h4.822v-7.333l8.098-13.372h-4.734Z"/></g></g><defs><clipPath id="a"><path fill="#fff" d="M26.5 20.5h223v22h-223z"/></clipPath></defs></svg>
